static/assets/img/icons/custom/RangeSliderIcon.svg

<?xml version="1.0" encoding="UTF-8"?>
<svg width="30px" height="30px" viewBox="0 0 30 30" version="1.1" xmlns="http://www.w3.org/2000/svg" xmlns:xlink="http://www.w3.org/1999/xlink">
    <defs>
        <path d="M1.70710678,0.292893219 C1.31658249,-0.0976310729 0.683417511,-0.0976310729 0.292893219,0.292893219 C-0.0976310729,0.683417511 -0.0976310729,1.31658249 0.292893219,1.70710678 L4.29289322,5.70710678 C4.68341751,6.09763107 5.31658249,6.09763107 5.70710678,5.70710678 L9.70710678,1.70710678 C10.0976311,1.31658249 10.0976311,0.683417511 9.70710678,0.292893219 C9.31658249,-0.0976310729 8.68341751,-0.0976310729 8.29289322,0.292893219 L5,3.58578644 L1.70710678,0.292893219 Z" id="path-1"></path>
        <path d="M1.70710678,0.292893219 C1.31658249,-0.0976310729 0.683417511,-0.0976310729 0.292893219,0.292893219 C-0.0976310729,0.683417511 -0.0976310729,1.31658249 0.292893219,1.70710678 L4.29289322,5.70710678 C4.68341751,6.09763107 5.31658249,6.09763107 5.70710678,5.70710678 L9.70710678,1.70710678 C10.0976311,1.31658249 10.0976311,0.683417511 9.70710678,0.292893219 C9.31658249,-0.0976310729 8.68341751,-0.0976310729 8.29289322,0.292893219 L5,3.58578644 L1.70710678,0.292893219 Z" id="path-3"></path>
    </defs>
    <g id="Pricing-2.1-Iterations" stroke="none" stroke-width="1" fill="none" fill-rule="evenodd">
        <g id="Artboard" transform="translate(-965.000000, -493.000000)">
            <g id="Group-7" transform="translate(781.000000, 494.000000)">
                <g id="Group-14" transform="translate(185.000000, 0.000000)">
                    <circle id="Oval-3" stroke="#000000" fill="#000000" cx="14" cy="14" r="14.5"></circle>
                    <g id="Group-13" transform="translate(0.000000, 6.000000)">
                        <g id="Icons-/-16px-/-Default-/-Dropdown" transform="translate(8.000000, 8.000000) rotate(-270.000000) translate(-8.000000, -8.000000) ">
                            <rect id="@bounds" fill-opacity="0" fill="#FF0000" x="0" y="0" width="16" height="16"></rect>
                            <g id="↪︎-🎨-Tint" transform="translate(3.000000, 5.000000)">
                                <mask id="mask-2" fill="white">
                                    <use xlink:href="#path-1"></use>
                                </mask>
                                <use id="Mask" fill="#FFFFFF" fill-rule="nonzero" xlink:href="#path-1"></use>
                            </g>
                        </g>
                        <g id="Icons-/-16px-/-Default-/-Dropdown" transform="translate(20.000000, 8.000000) scale(-1, 1) rotate(-270.000000) translate(-20.000000, -8.000000) translate(12.000000, 0.000000)">
                            <rect id="@bounds" fill-opacity="0" fill="#FF0000" x="0" y="0" width="16" height="16"></rect>
                            <g id="↪︎-🎨-Tint" transform="translate(3.000000, 5.000000)">
                                <mask id="mask-4" fill="white">
                                    <use xlink:href="#path-3"></use>
                                </mask>
                                <use id="Mask" fill="#FFFFFF" fill-rule="nonzero" xlink:href="#path-3"></use>
                            </g>
                        </g>
                    </g>
                </g>
            </g>
        </g>
    </g>
</svg>

<svg height="30" viewBox="0 0 30 30" width="30" xmlns="http://www.w3.org/2000/svg"><g fill="none" fill-rule="evenodd"><circle cx="15" cy="15" fill="#000" r="14.5" stroke="#000"/><g transform="matrix(0 1 -1 0 17 7)"><path d="m0 0h16v16h-16z" fill="none"/><path d="m1.70710678.29289322c-.39052429-.39052429-1.02368927-.39052429-1.41421356 0-.39052429.39052429-.39052429 1.02368927 0 1.41421356l4 4c.39052429.39052429 1.02368927.39052429 1.41421356 0l4-4c.39052432-.39052429.39052432-1.02368927 0-1.41421356-.39052429-.39052429-1.02368927-.39052429-1.41421356 0l-3.29289322 3.29289322z" fill="#fff" fill-rule="nonzero" transform="translate(3 5)"/></g><g transform="matrix(0 1 1 0 13 7)"><path d="m0 0h16v16h-16z" fill="none"/><path d="m1.70710678.29289322c-.39052429-.39052429-1.02368927-.39052429-1.41421356 0-.39052429.39052429-.39052429 1.02368927 0 1.41421356l4 4c.39052429.39052429 1.02368927.39052429 1.41421356 0l4-4c.39052432-.39052429.39052432-1.02368927 0-1.41421356-.39052429-.39052429-1.02368927-.39052429-1.41421356 0l-3.29289322 3.29289322z" fill="#fff" fill-rule="nonzero" transform="translate(3 5)"/></g></g></svg>
